assets/logos/SVG/color/lift-small.svg

<?xml version="1.0" encoding="UTF-8" standalone="no"?>
<svg width="209px" height="100px" viewBox="0 0 209 100" version="1.1" xmlns="http://www.w3.org/2000/svg" xmlns:xlink="http://www.w3.org/1999/xlink" xmlns:sketch="http://www.bohemiancoding.com/sketch/ns">
    <!-- Generator: Sketch 3.0.3 (7891) - http://www.bohemiancoding.com/sketch -->
    <title>Untitled 2</title>
    <desc>Created with Sketch.</desc>
    <defs></defs>
    <g id="Page-1" stroke="none" stroke-width="1" fill="none" fill-rule="evenodd" sketch:type="MSPage">
        <g id="lift" sketch:type="MSLayerGroup">
            <g id="Group" sketch:type="MSShapeGroup">
                <path d="M87.919098,94.621831 C86.7109932,94.1950704 85.776848,93.5535211 85.1357264,92.7176056 C84.4889561,91.8802817 84.0801351,90.6866197 83.9205608,89.1669014 C83.7496892,87.5239437 83.660723,85.3908451 83.660723,82.828169 L83.660723,1.03802817 L62.1584358,3.68028169 L62.1584358,7.04647887 L63.0876385,7.04647887 C67.6806959,7.04647887 69.3639932,7.98098592 69.9698108,8.76408451 C70.9046622,9.97816901 71.3784426,12.243662 71.3784426,15.5021127 L71.3784426,82.828169 C71.3784426,85.3697183 71.2908885,87.5035211 71.1164865,89.1669014 C70.9547939,90.6978873 70.5643311,91.8992958 69.9535709,92.7401408 C69.3456351,93.5795775 68.482098,94.1964789 67.3114155,94.6253521 C66.0609459,95.0859155 64.345875,95.4070423 62.2128041,95.578169 L61.3577399,95.6450704 L61.3577399,99.1176056 L62.3540203,99.0464789 C64.8069459,98.8690141 67.2909392,98.7352113 69.7382162,98.6471831 C74.5155608,98.4683099 80.1790372,98.471831 85.3094223,98.6471831 C88.015125,98.734507 90.6791689,98.8690141 93.2252973,99.0464789 L94.2194595,99.115493 L94.2194595,95.6394366 L93.3594527,95.5760563 C91.0463311,95.4042254 89.2161689,95.0838028 87.9205101,94.6211268" id="Shape" fill="#38A1CF"></path>
                <path d="M123.604436,95.0577465 C122.416807,94.8190141 121.44877,94.4049296 120.722213,93.8288732 C120.028841,93.2823944 119.54447,92.4767606 119.237324,91.3598592 C118.90476,90.1647887 118.737419,88.465493 118.737419,86.315493 L118.737419,45.8880282 L96.566473,47.3535211 L96.566473,50.9338028 L97.3897635,51.0288732 C99.5750845,51.2823944 101.306395,51.7429577 102.534976,52.3992958 C103.716956,53.0330986 104.608736,53.8443662 105.186311,54.8070423 C105.777301,55.7971831 106.137402,57.0598592 106.25673,58.5626761 C106.388767,60.1830986 106.455845,62.0760563 106.455845,64.1873239 L106.455845,86.3140845 C106.455845,88.4528169 106.287091,90.1521127 105.953821,91.3626761 C105.65303,92.4647887 105.167953,93.3 104.517652,93.8450704 C103.835578,94.4140845 102.936736,94.8239437 101.845841,95.0591549 C100.630676,95.3161972 99.1514358,95.4915493 97.4511926,95.5760563 L96.566473,95.6169014 L96.566473,99.1338028 L97.5775811,99.0443662 C99.5899122,98.8690141 101.600125,98.7330986 103.553145,98.6450704 C105.42426,98.5577465 107.433061,98.5126761 109.523061,98.5126761 C112.720902,98.5126761 115.881321,98.5577465 118.916057,98.6471831 C122.075064,98.734507 125.237601,98.8711268 128.312584,99.0464789 L129.293331,99.1042254 L129.293331,95.6133803 L128.407199,95.5760563 C126.524787,95.4901408 124.908568,95.3169014 123.60373,95.0577465" id="Shape" fill="#38A1CF"></path>
                <path d="M111.259314,23.1401408 C113.475703,23.1401408 115.389889,22.2971831 116.948916,20.6316901 C118.490997,18.9830986 119.273334,17.0302817 119.273334,14.8316901 C119.273334,12.6295775 118.490997,10.6788732 116.948916,9.02816901 C115.389889,7.36619718 113.476409,6.52394366 111.259314,6.52394366 C109.040807,6.52394366 107.12874,7.36690141 105.573243,9.02816901 C104.031162,10.6746479 103.248824,12.6253521 103.248824,14.8316901 C103.248824,17.0359155 104.031162,18.9866197 105.571125,20.6316901 C107.128034,22.2971831 109.040101,23.1401408 111.258608,23.1401408" id="Shape" fill="#38A1CF"></path>
                <path d="M206.89023,84.4169014 L206.196858,85.1126761 C204.463429,86.8507042 202.716584,88.3 201.001514,89.4147887 C199.383176,90.471831 197.307297,91.0077465 194.826834,91.0077465 C193.693574,91.0077465 192.816622,90.7950704 192.223514,90.3753521 C191.59722,89.9316901 191.131206,89.3535211 190.796524,88.6056338 C190.435716,87.8035211 190.192824,86.8823944 190.069966,85.8626761 C189.941459,84.7866197 189.8765,83.6732394 189.8765,82.5542254 L189.8765,50.4894366 L208.182358,50.4894366 L208.182358,46.015493 L189.8765,46.015493 L189.8765,25.6232394 L186.414584,25.6232394 L186.197111,26.2514085 C185.407713,28.5394366 184.493338,30.9605634 183.476581,33.4443662 C182.484537,35.8647887 181.241128,38.0992958 179.780953,40.0830986 C178.389267,41.9704225 175.830429,43.9394366 173.55826,44.8704225 C171.497916,45.715493 169.498294,45.9239437 166.530635,46.015493 L153.674311,46.015493 L153.674311,23.2802817 C153.674311,21.8014085 153.828236,19.9978873 154.135382,17.9147887 C154.429111,15.8746479 155.008804,13.9091549 155.859632,12.071831 C156.69422,10.2704225 157.793588,8.71901408 159.130199,7.46338028 C160.384199,6.28098592 162.012422,5.70492958 164.105953,5.70492958 C165.535061,5.70492958 166.755875,5.98098592 167.727443,6.52535211 C168.718074,7.08309859 169.51524,7.78028169 170.096345,8.59929577 C170.698632,9.4443662 171.12228,10.3147887 171.358111,11.1880282 C171.603122,12.0866197 171.728098,12.8161972 171.728098,13.3549296 C171.728098,16.4767606 172.033125,18.3901408 172.686956,19.3711268 C173.400804,20.4471831 174.604672,20.993662 176.265375,20.993662 C178.612389,20.993662 180.195422,20.4978873 181.099912,19.4739437 C181.978983,18.4852113 182.404044,16.8352113 182.404044,14.4295775 C182.404044,10.3830986 180.772291,7.10774648 177.556091,4.69647887 C174.419679,2.34859155 170.568007,1.1584507 166.109811,1.1584507 C161.563355,1.1584507 157.644605,2.34647887 154.46724,4.69225352 C151.347774,6.99507042 148.788936,9.8915493 146.859922,13.2971831 C144.947855,16.6802817 143.543459,20.3295775 142.686277,24.1492958 C141.809324,28.0373239 141.394855,30.2049296 141.394855,33.2669014 L141.394855,46.015493 L135.889541,46.015493 L134.518331,50.4894366 L141.394855,50.4894366 L141.394855,83.0971831 C141.394855,85.0964789 141.327777,86.9204225 141.197858,88.5183099 C141.073588,89.9838028 140.711368,91.2521127 140.11473,92.2852113 C139.546334,93.2774648 138.69127,94.0528169 137.574956,94.5957746 C136.404274,95.1626761 134.707561,95.4929577 132.535655,95.5746479 L131.640345,95.6084507 L131.640345,99.1105634 L132.62674,99.0471831 C135.432706,98.8697183 138.254912,98.7359155 141.017807,98.6478873 C146.560544,98.4633803 153.028953,98.478169 158.599226,98.6478873 C161.626196,98.7352113 164.719537,98.871831 167.793108,99.0471831 L168.773855,99.1049296 L168.773855,95.5971831 L167.867247,95.5746479 C164.316365,95.4908451 161.547821,95.1422535 159.633635,94.543662 C157.812652,93.9767606 156.45274,93.1711268 155.592027,92.1471831 C154.718605,91.1176056 154.198223,89.9147887 153.997696,88.4661972 C153.782341,86.9105634 153.672193,85.1056338 153.672193,83.0971831 L153.672193,50.4894366 L177.593514,50.4894366 L177.593514,87.1140845 C177.593514,90.3922535 178.308774,93.2795775 179.726584,95.6978873 C181.231949,98.2732394 184.065453,99.5767606 188.141659,99.5767606 C190.38276,99.5767606 192.491824,99.2204225 194.407422,98.515493 C196.308193,97.8183099 198.090341,96.8760563 199.706561,95.7183099 C201.306541,94.5697183 202.848622,93.2774648 204.292557,91.8732394 C205.702601,90.4971831 207.17478,89.1316901 208.66673,87.8133803 L209.372811,87.1908451 L206.886699,84.4176056" id="Shape" fill="#38A1CF"></path>
                <path d="M20.9367162,0.304929577 L32.995875,0.304929577 L53.0951791,45.3739437 L39.0476959,45.3739437 L27.0888007,16.6450704 L14.3165,45.3739437 L0.192760135,45.3739437 L20.9367162,0.304929577" id="Shape" fill="#D7197D"></path>
            </g>
        </g>
    </g>
</svg>

<svg width="210" height="100" xmlns="http://www.w3.org/2000/svg" xmlns:sketch="http://www.bohemiancoding.com/sketch/ns"><title>Untitled 3</title><desc>Created with Sketch.</desc><g sketch:type="MSShapeGroup" fill="none"><path d="M87.919 94.622c-1.208-.427-2.142-1.068-2.783-1.904-.647-.837-1.056-2.031-1.215-3.551-.171-1.643-.26-3.776-.26-6.339v-81.79l-21.502 2.642v3.366h.929c4.593 0 6.276.935 6.882 1.718.935 1.214 1.409 3.48 1.409 6.738v67.326c0 2.542-.088 4.675-.262 6.339-.162 1.531-.552 2.732-1.163 3.573-.608.839-1.471 1.456-2.642 1.885-1.25.461-2.966.782-5.099.953l-.855.067v3.473l.996-.071c2.453-.177 4.937-.311 7.384-.399 4.777-.179 10.441-.175 15.571 0 2.706.087 5.37.222 7.916.399l.994.069v-3.476l-.86-.063c-2.313-.172-4.143-.492-5.439-.955" id="Shape" fill="#00B0E9"/><path d="M123.604 95.058c-1.188-.239-2.156-.653-2.882-1.229-.693-.546-1.178-1.352-1.485-2.469-.333-1.195-.5-2.894-.5-5.044v-40.427l-22.171 1.465v3.58l.823.095c2.185.254 3.917.714 5.145 1.37 1.182.634 2.074 1.445 2.651 2.408.591.99.951 2.253 1.07 3.756.132 1.62.199 3.513.199 5.625v22.127c0 2.139-.169 3.838-.502 5.049-.301 1.102-.786 1.937-1.436 2.482-.682.569-1.581.979-2.672 1.214-1.215.257-2.694.432-4.395.517l-.885.041v3.517l1.011-.089c2.012-.175 4.023-.311 5.976-.399 1.871-.087 3.88-.132 5.97-.132 3.198 0 6.358.045 9.393.135 3.159.087 6.322.224 9.397.399l.981.058v-3.491l-.886-.037c-1.882-.086-3.499-.259-4.803-.518" id="Shape" fill="#00B0E9"/><path d="M111.259 23.14c2.216 0 4.131-.843 5.69-2.508 1.542-1.649 2.324-3.601 2.324-5.8 0-2.202-.782-4.153-2.324-5.804-1.559-1.662-3.473-2.504-5.69-2.504-2.219 0-4.131.843-5.686 2.504-1.542 1.646-2.324 3.597-2.324 5.804 0 2.204.782 4.155 2.322 5.8 1.557 1.665 3.469 2.508 5.687 2.508" id="Shape" fill="#00B0E9"/><path d="M206.89 84.417l-.693.696c-1.733 1.738-3.48 3.187-5.195 4.302-1.618 1.057-3.694 1.593-6.175 1.593-1.133 0-2.01-.213-2.603-.632-.626-.444-1.092-1.022-1.427-1.77-.361-.802-.604-1.723-.727-2.743-.129-1.076-.193-2.189-.193-3.308v-32.065h18.306v-4.474h-18.306v-20.392h-3.462l-.217.628c-.789 2.288-1.704 4.709-2.721 7.193-.992 2.42-2.235 4.655-3.696 6.639-1.392 1.887-3.951 3.856-6.223 4.787-2.06.845-4.06 1.054-7.028 1.145h-12.856v-22.735c0-1.479.154-3.282.461-5.365.294-2.04.873-4.006 1.724-5.843.835-1.801 1.934-3.353 3.271-4.608 1.254-1.182 2.882-1.758 4.976-1.758 1.429 0 2.65.276 3.621.82.991.558 1.788 1.255 2.369 2.074.602.845 1.026 1.715 1.262 2.589.245.899.37 1.628.37 2.167 0 3.122.305 5.035.959 6.016.714 1.076 1.918 1.623 3.578 1.623 2.347 0 3.93-.496 4.835-1.52.879-.989 1.304-2.639 1.304-5.044 0-4.046-1.632-7.322-4.848-9.733-3.136-2.348-6.988-3.538-11.446-3.538-4.546 0-8.465 1.188-11.643 3.534-3.119 2.303-5.678 5.199-7.607 8.605-1.912 3.383-3.316 7.032-4.174 10.852-.877 3.888-1.291 6.056-1.291 9.118v12.749h-5.505l-1.371 4.474h6.877v32.608c0 1.999-.067 3.823-.197 5.421-.124 1.465-.486 2.734-1.083 3.767-.568.992-1.423 1.768-2.54 2.311-1.171.567-2.867.897-5.039.979l-.895.034v3.502l.986-.063c2.806-.177 5.628-.311 8.391-.399 5.543-.185 12.011-.17 17.581 0 3.027.087 6.12.224 9.194.399l.981.058v-3.508l-.907-.023c-3.551-.084-6.319-.432-8.234-1.031-1.821-.567-3.181-1.373-4.042-2.396-.873-1.03-1.394-2.232-1.594-3.681-.215-1.556-.326-3.361-.326-5.369v-32.608h23.921v36.625c0 3.278.715 6.165 2.133 8.584 1.505 2.575 4.339 3.879 8.415 3.879 2.241 0 4.35-.356 6.266-1.061 1.901-.697 3.683-1.639 5.299-2.797 1.6-1.149 3.142-2.441 4.586-3.845 1.41-1.376 2.882-2.742 4.374-4.06l.706-.623-2.486-2.773" fill="#00B0E9"/><path d="M20.937.305h12.059l20.099 45.069h-14.047l-11.959-28.729-12.772 28.729h-14.124l20.744-45.069" fill="#EE0788"/></g></svg>
